X: 2
T: Darkey's Dream
Z: Alancorsini
S: https://thesession.org/tunes/6763#setting18379
R: barndance
M: 4/4
L: 1/8
K: Dmaj
A,2 B,>C (D F3) | {F}E2 DE (F A3) | d2 c>B A>FD>E | (F2 {GF}E}>D E2 A2 |A,2 B,>C (D F3) | {F}E2 DE (F A3) | d2 c>B A>FD>E |1 F>A,B,>C D2 d2 %repeat 8va% :|2 fABc d2 ((3ABc) ||d2 d>e f>d AF | A>BA>F A2 ((3ABc) | d2 d>e fd AF | (F>E)E>F E2 ((3ABc) | d2 d>e f>d AF | A>BA>F A2 ((3ABc) | d2 c2 ((3BcB) A2 | ((3GAG) ((3FGF) ((3EFE) (D>B,) %D.C.%
